X:1
T:Boris's soliloguy
T:Boris's monologue
T:Modest Mussorgsky
T:"Скорбит душа!" "My soul is sad..." 
C:Modest Mussorgsky
%%score 1 { ( 2 3 ) | ( 4 5 ) }
L:1/8
Q:1/4=90
M:4/4
K:Eb
V:1 bass nm="Бас" snm="Б."
V:2 treble nm="Piano" snm="Pno."
V:3 treble 
V:4 bass 
V:5 bass 
V:1
"^Moderato (Meno mosso)" z8 | z8 | z2!f! E,2!<(! A,3!<)!!>(! A,!>)! | G,2 z2 z4 | %4
w: ||Скор- бит ду-|ша!|
 z E, E, E, A,3 A, | G,2 G,2 z2"^cresc." _D2 | =D2 C C!>(! B,3/2 B,/ B, B,!>)! | A,3 A, G, G, z2 | %8
w: Ка- кой- то страх не-|воль- ный зло-|ве- щим пред- чувст- ви- ем ско-|вал мне серд- це.|
 z2!p! G,2!<(! C3/2!<)!!>(! G,/ G,!>)! z |"^dim." G,2 G, G, B,3 F, | F,2 F, z z2!mf! B,2 | %11
w: О, пра- вед- ник,|о, мой о- тец дер-|жав- ный! Воз-|
 E3 D C2 z!<(! C | B,2 B,!<)! z!>(! B,3 B,!>)! | G,2 z2 z G, G, G, | %14
w: зри с.не- бес на-|сле- зы вер- ных|слуг и ни- спо-|
!<(! A,3/2 A,/ A, B, C3/2 C/!<)! C C |!>(! C z/ C/ C C!>)! B,2 B, z | z2 z!p! E, E,3 E, | %17
w: шли ты мне свя- щен- но- е на|власть бла- го- сло- ве- нье:|Да бу- ду|
 B,2 z E, A,3/2 E,/ E, E, |!<(! E, z E,2 F,2!<)! F,2 |!>(! F,3/2 F,/ F, F, E,2!>)! z2 | %20
w: благ и пра- ве- ден, как|ты; да в.сла- ве|прав- лю свой на- род...|
 !fermata!z8 ||[K:C] z8 | z4 z G, G, G, | A, E, E, G, A,3/2 A,/ A, A, | A,3/2 A,/ A, A, B, B, z2 | %25
w: ||Те- перь по-|кло- ним- ся по- чи- ю- щим влас-|ти- те- лям Ру- си- и,|
 z2 G,2 C2 z B, | A, B, G, E, A,2 z2 | z4"^cresc." D z A,3/2 A,/ | C3 C B, A, G, A, | %29
w: А там- сзы-|вать на- род на пир,|всех, от бо-|яр, до ни- ще- го слеп-|
 F,2 z2!ff! E z C B, | A,2 z2 F2- F z | D B, C E D G, z2 | z8 |] %33
w: ца; всем воль- ный|вход, все- *|го- сти до- ро- ги- е.||
V:2
!>(! !^!G,8-!>)! |!pp! [G,G]8 | E2 C2 [A,EA]4 | G4!<(! F2 D2 | E2 C2!<)!!>(! [_CEA]4!>)! | %5
 [B,EG]2- [B,EG] z !^!_D4 |!<(! [=DF]2 [CE]2!<)! [_B,D]4 |!>(! [A,CEG]4!>)! [=B,DG]2- [B,DG] z | %8
!pp! z4 !///-![eg]2 c2 | !///-![eg]2 B2 !///-![eb]2 B2 | !///-!b2 B2!<(! !///-!b2 g2 | %11
 !///-!c' g !///-!d' g!<)!!>(! !///-!c' a !///-!c' f!>)! | %12
!<(! !///-!b a !///-!b _g!<)!!>(! !///-!b f !///-!b f!>)! |!<(! !///-!g2 e2 !///-!g2 e2!<)! | %14
 ([ea]2 [cea][Begb] [ceac']4) |!>(! ([DFAc]4 [EGB]2- [EGB]) z!>)! |!pp! z4!<(! !///-!e2 E2!<)! | %17
 !///-!e2 E2!>(! !///-!e2 E2!>)! |!<(! !///-!e2 E2!<)! ([FA_df]4- |!>(! [FAdf]4 [EAce]2) z2!>)! | %20
 !fermata!z8 ||[K:C][K:bass]!pp! ([A,C]3!<(! [G,B,] [A,C]2) [A,C]2!<)! | %22
!>(! ([^F,D]4 [G,B,])!>)! z!p! ([G,B,]2 | [A,C]3 [G,B,])"_cresc." [A,C]4 | %24
 ([A,D^F]4!mp! [B,DG]2- [B,DG]) z |[K:treble] !^!G4!f! c3 B | %26
!<(! (ABGE)!<)! [CFA] z!ff!!<(! !trill(!Te'2!<)! | [gc'e'g'] z !^!c2!f!!>(! [Dcd]4!>)! | %28
 [Dcd]4!<(! (BAGA)!<)! | [A,CDF] z!ff!!<(! (Te'2{^d'e'} [gc'e'g'])!<)! z z2 | [A,FA]4!<(! [FAdf]4 | %31
 [DGBd]2 [CGAc]2 [DGBd]!<)!"_cresc." z !trill(!Tg2 | !trill)!!fermata!g8 |] %33
V:3
 G8- | G4!<(! F2 D2 | x4!<)! x4 | [G,DG]2 z2 z4 | x8 | x8 | [G,G]8 | x8 | x8 | x8 | [Bd] z z2 x4 | %11
 x8 | x8 | x8 | x8 | x8 | x4 c4 | B4 A4 | [GB]2- [GB] x5 | x8 | x8 ||[K:C][K:bass] x8 | x8 | %23
 E4 E4 | x8 |[K:treble] x4 C4 | C4 x2 !trill)!c'2 | x8 | x4 [Dd]4 | x8 | x8 | x8 | x8 |] %33
V:4
 z8 | (G,4 F,2 D,2 | E,2 C,2) [_C,,_C,]4 | G,,4 F,,2 D,,2 | [E,,E,]2 [C,,C,]2 [A,,,A,,]4 | %5
 [E,,E,]2- [E,,E,] z !^!_D,4 | [=B,,=D,]2 [C,E,]2 D,4 | [G,,E,]4 [G,,G,]2- [G,,G,] z | %8
 !///-!G,2!<(! G2!<)!!>(! !///-!E2 G2!>)! | !///-!E2 G2 !///-![B,E]2 F2 | %10
 [B,DF]2- [B,DF] z !///!e2 !///-!d e | !///-!c e !///-!B e !///-!A e !///-!A e | %12
 !///-!B e !///-!B e !///-!B e !///-!B d | c4 !///-!B c !///-!G c | [Fc]2 ([FA][EG] [A,-A]4 | %15
 A,4)[K:bass] E,4 | (E,2 D,2 C,2 D,2 | E,2 D,2 C,2 D,2 | E,2 __E,2) ([_D,,_D,]4 | F,2 G,2 A,2) z2 | %20
 !fermata!z8 ||[K:C] (A,,3 E,, A,,2) A,,2 | ([D,,D,-]4 [G,,D,]) z (E,2 | A,,3 E,) A,,4 | %24
 ([D,,D,]4 [G,,,G,,]2- [G,,,G,,]) z | !^!G,4 C,3 [B,,B,] | %26
 ([A,,A,][B,,B,][G,,G,][E,,E,]) [F,,F,] z ([E,,E,][D,,D,] | [C,,G,,C,]) z !^!C2 [C,D,C]4 | %28
 [C,D,D]4 ([F,,B,][A,,A,][G,,G,][A,,A,]) | [F,,C,D,F,] z ([E,,E,][D,,D,] [C,,G,,C,]) z z2 | %30
 [F,,C,F,]4 [D,,D,]4 | [G,,D,G,]2 [G,,E,G,]2 [G,,D,G,] z[K:treble] !trill(!TG2 | %32
 !trill)!!fermata!G8 |] %33
V:5
 x8 | x8 | x8 | [=B,,,=B,,]2 z2 z4 | x8 | x8 | G,,8 | x8 | x8 | x8 | x8 | x8 | x8 | x8 | x8 | %15
 x4[K:bass] x4 | z4 A,,4 | G,,4 F,,4 | E,,4 x4 | _D,4 A,,2 x2 | x8 ||[K:C] E,4 E,2 E,2 | x8 | x8 | %24
 x8 | x8 | x6 G,,2 | x8 | x4 D,4 | x2 G,,2 x4 | x8 | x6[K:treble] x2 | x8 |] %33

